!!!OTL: ZIEHE DURCH DURCH DIE GOLDNE BRUECKE
!!!ARE: Europa, Mitteleuropa, Deutschland, Westfalen; Brandenburg
!!!SCT: K2296
!!!YEM: Copyright 1995, estate of Helmut Schaffrath.
**kern
*ICvox
*Ivox
*M2/4
*k[f#c#]
*D:
=1
{8a
8a
4f#
=2
8a
8a
4f#}
=3
{8a
8a
8b
8a
=4
4g
8e}
{8e
=5
8g
8g
8e
8e
=6
8g
8g
8e}
{8e
=7
8g
8g
8a
8g
=8
4f#
8d}
{8a
=9
4a
8f#
8a
=10
4a
8f#}
{8a
=11
8a
8a
8b
8a
=12
8g
8f#
4e}
==
!!!AGN: Kinder - Lied, Reigen, Tanz - Spiel
!!!ONB: ESAC (Essen Associative Code) Database: KINDER
!!!AMT: simple duple
!!!AIN: vox
!!!EED: Helmut Schaffrath
!!!EEV: 1.0
*-
